icons/circle/48/min.svg

<svg xmlns="http://www.w3.org/2000/svg" viewBox="0 0 48 48">
 <defs>
  <linearGradient id="linearGradient3764" x1="1" x2="47" gradientUnits="userSpaceOnUse" gradientTransform="matrix(0,-1,1,0,-1.5e-6,47.999998)">
   <stop style="stop-color:#e98111;stop-opacity:1"/>
   <stop offset="1" style="stop-color:#ef8b1f;stop-opacity:1"/>
  </linearGradient>
  <linearGradient id="linearGradient4216" x1="18" y1="24" x2="20" y2="31" gradientUnits="userSpaceOnUse">
   <stop style="stop-color:#7daed3;stop-opacity:1"/>
   <stop offset="1" style="stop-color:#89bad7;stop-opacity:1"/>
  </linearGradient>
  <linearGradient id="linearGradient4224" x1="14" y1="25" x2="21" y2="18" gradientUnits="userSpaceOnUse">
   <stop style="stop-color:#7daed3;stop-opacity:1"/>
   <stop offset="1" style="stop-color:#719fcf;stop-opacity:1"/>
  </linearGradient>
  <linearGradient id="linearGradient4232" x1="19" y1="16" x2="30" y2="15" gradientUnits="userSpaceOnUse">
   <stop style="stop-color:#719fcf;stop-opacity:1"/>
   <stop offset="1" style="stop-color:#6590cb;stop-opacity:1"/>
  </linearGradient>
  <linearGradient id="linearGradient4240" x1="27" y1="18" x2="34" y2="25" gradientUnits="userSpaceOnUse">
   <stop style="stop-color:#6590cb;stop-opacity:1"/>
   <stop offset="1" style="stop-color:#5980c7;stop-opacity:1"/>
  </linearGradient>
  <linearGradient id="linearGradient4248" x1="28" y1="32" x2="35" y2="23.47" gradientUnits="userSpaceOnUse">
   <stop style="stop-color:#4d6ec3;stop-opacity:1"/>
   <stop offset="1" style="stop-color:#5980c7;stop-opacity:1"/>
  </linearGradient>
  <linearGradient id="linearGradient4256" x1="18" y1="34.392" x2="27.448" y2="29" gradientUnits="userSpaceOnUse">
   <stop style="stop-color:#445bbc;stop-opacity:1"/>
   <stop offset="1" style="stop-color:#4d6ec3;stop-opacity:1"/>
  </linearGradient>
 </defs>
 <g>
  <path d="m 36.31 5 c 5.859 4.062 9.688 10.831 9.688 18.5 c 0 12.426 -10.07 22.5 -22.5 22.5 c -7.669 0 -14.438 -3.828 -18.5 -9.688 c 1.037 1.822 2.306 3.499 3.781 4.969 c 4.085 3.712 9.514 5.969 15.469 5.969 c 12.703 0 23 -10.298 23 -23 c 0 -5.954 -2.256 -11.384 -5.969 -15.469 c -1.469 -1.475 -3.147 -2.744 -4.969 -3.781 z m 4.969 3.781 c 3.854 4.113 6.219 9.637 6.219 15.719 c 0 12.703 -10.297 23 -23 23 c -6.081 0 -11.606 -2.364 -15.719 -6.219 c 4.16 4.144 9.883 6.719 16.219 6.719 c 12.703 0 23 -10.298 23 -23 c 0 -6.335 -2.575 -12.06 -6.719 -16.219 z" style="opacity:0.05"/>
  <path d="m 41.28 8.781 c 3.712 4.085 5.969 9.514 5.969 15.469 c 0 12.703 -10.297 23 -23 23 c -5.954 0 -11.384 -2.256 -15.469 -5.969 c 4.113 3.854 9.637 6.219 15.719 6.219 c 12.703 0 23 -10.298 23 -23 c 0 -6.081 -2.364 -11.606 -6.219 -15.719 z" style="opacity:0.1"/>
  <path d="m 31.25 2.375 c 8.615 3.154 14.75 11.417 14.75 21.13 c 0 12.426 -10.07 22.5 -22.5 22.5 c -9.708 0 -17.971 -6.135 -21.12 -14.75 a 23 23 0 0 0 44.875 -7 a 23 23 0 0 0 -16 -21.875 z" style="opacity:0.2"/>
 </g>
 <g>
  <path d="m 24 1 c 12.703 0 23 10.297 23 23 c 0 12.703 -10.297 23 -23 23 -12.703 0 -23 -10.297 -23 -23 0 -12.703 10.297 -23 23 -23 z" style="fill:url(#linearGradient3764);fill-opacity:1"/>
 </g>
 <circle r="15" cy="25" cx="25" style="fill:#000;opacity:0.1;fill-opacity:1;stroke:none"/>
 <g>
  <g>
   <g transform="translate(1,1)">
    <g style="opacity:0.1">
     <!-- color: #7187c8 -->
    </g>
   </g>
  </g>
 </g>
 <g>
  <path d="m 40.03 7.531 c 3.712 4.084 5.969 9.514 5.969 15.469 0 12.703 -10.297 23 -23 23 c -5.954 0 -11.384 -2.256 -15.469 -5.969 4.178 4.291 10.01 6.969 16.469 6.969 c 12.703 0 23 -10.298 23 -23 0 -6.462 -2.677 -12.291 -6.969 -16.469 z" style="opacity:0.1"/>
 </g>
 <circle cx="24" cy="24" r="15" style="fill:#f4d62c;opacity:1;fill-opacity:1;stroke:none"/>
 <path d="m 18 13.608 c 3.713 -2.144 8.287 -2.144 12 0 c 0.069 5.534 -3.27 7.659 -6 10.392 -3.979 -2.776 -6.246 -6.147 -6 -10.392" style="fill:url(#linearGradient4232);opacity:1;fill-opacity:1;stroke:none"/>
 <path d="m 30 13.608 c 3.713 2.144 6 6.105 6 10.392 -4 2.918 -8 1.136 -12 0" style="fill:url(#linearGradient4240);opacity:1;fill-opacity:1;stroke:none"/>
 <path d="m 12 24 c 0 -4.287 2.287 -8.249 6 -10.392 l 6 10.392 c -3.951 1.321 -7.873 3.434 -12 0 z" style="fill:url(#linearGradient4224);opacity:1;fill-opacity:1;stroke:none"/>
 <path d="m 18 34.392 c -3.713 -2.144 -6 -6.105 -6 -10.392 l 12 0 c 0.53 5.272 -2.769 7.808 -6 10.392 z" style="fill:url(#linearGradient4216);opacity:1;fill-opacity:1;stroke:none"/>
 <path d="m 30 34.392 c -3.713 2.144 -8.287 2.144 -12 0 l 6 -10.392 c 3.238 3.228 6.526 6.447 6 10.392 z" style="fill:url(#linearGradient4256);opacity:1;fill-opacity:1;stroke:none"/>
 <path d="M 36 24 A 12 12 0 0 1 30 34.392 L 24 24" style="fill:url(#linearGradient4248);opacity:1;fill-opacity:1;stroke:none"/>
</svg>

<svg xmlns="http://www.w3.org/2000/svg" viewBox="0 0 48 48">
  <defs>
    <linearGradient id="a" x1="1" x2="47" gradientUnits="userSpaceOnUse" gradientTransform="rotate(-90 24 24)">
      <stop stop-color="#e98111"/>
      <stop offset="1" stop-color="#ef8b1f"/>
    </linearGradient>
    <linearGradient id="e" x1="18" y1="24" x2="20" y2="31" gradientUnits="userSpaceOnUse">
      <stop stop-color="#7daed3"/>
      <stop offset="1" stop-color="#89bad7"/>
    </linearGradient>
    <linearGradient id="d" x1="14" y1="25" x2="21" y2="18" gradientUnits="userSpaceOnUse">
      <stop stop-color="#7daed3"/>
      <stop offset="1" stop-color="#719fcf"/>
    </linearGradient>
    <linearGradient id="b" x1="19" y1="16" x2="30" y2="15" gradientUnits="userSpaceOnUse">
      <stop stop-color="#719fcf"/>
      <stop offset="1" stop-color="#6590cb"/>
    </linearGradient>
    <linearGradient id="c" x1="27" y1="18" x2="34" y2="25" gradientUnits="userSpaceOnUse">
      <stop stop-color="#6590cb"/>
      <stop offset="1" stop-color="#5980c7"/>
    </linearGradient>
    <linearGradient id="g" x1="28" y1="32" x2="35" y2="23.47" gradientUnits="userSpaceOnUse">
      <stop stop-color="#4d6ec3"/>
      <stop offset="1" stop-color="#5980c7"/>
    </linearGradient>
    <linearGradient id="f" x1="18" y1="34.392" x2="27.448" y2="29" gradientUnits="userSpaceOnUse">
      <stop stop-color="#445bbc"/>
      <stop offset="1" stop-color="#4d6ec3"/>
    </linearGradient>
  </defs>
  <path d="M36.31 5c5.859 4.062 9.688 10.831 9.688 18.5 0 12.426-10.07 22.5-22.5 22.5-7.669 0-14.438-3.828-18.5-9.688a23.24 23.24 0 0 0 3.781 4.969 22.923 22.923 0 0 0 15.469 5.969c12.703 0 23-10.298 23-23a22.92 22.92 0 0 0-5.969-15.469A23.216 23.216 0 0 0 36.31 5zm4.969 3.781A22.911 22.911 0 0 1 47.498 24.5c0 12.703-10.297 23-23 23a22.909 22.909 0 0 1-15.719-6.219C12.939 45.425 18.662 48 24.998 48c12.703 0 23-10.298 23-23 0-6.335-2.575-12.06-6.719-16.219z" opacity=".05"/>
  <path d="M41.28 8.781a22.923 22.923 0 0 1 5.969 15.469c0 12.703-10.297 23-23 23A22.92 22.92 0 0 1 8.78 41.281 22.911 22.911 0 0 0 24.499 47.5c12.703 0 23-10.298 23-23A22.909 22.909 0 0 0 41.28 8.781z" opacity=".1"/>
  <path d="M31.25 2.375C39.865 5.529 46 13.792 46 23.505c0 12.426-10.07 22.5-22.5 22.5-9.708 0-17.971-6.135-21.12-14.75a23 23 0 0 0 44.875-7 23 23 0 0 0-16-21.875z" opacity=".2"/>
  <path d="M24 1c12.703 0 23 10.297 23 23S36.703 47 24 47 1 36.703 1 24 11.297 1 24 1z" fill="url(#a)"/>
  <circle r="15" cy="25" cx="25" opacity=".1"/>
  <path d="M40.03 7.531A22.922 22.922 0 0 1 45.999 23c0 12.703-10.297 23-23 23A22.92 22.92 0 0 1 7.53 40.031C11.708 44.322 17.54 47 23.999 47c12.703 0 23-10.298 23-23 0-6.462-2.677-12.291-6.969-16.469z" opacity=".1"/>
  <circle cx="24" cy="24" r="15" fill="#f4d62c"/>
  <path d="M18 13.608a11.998 11.998 0 0 1 12 0c.069 5.534-3.27 7.659-6 10.392-3.979-2.776-6.246-6.147-6-10.392" fill="url(#b)"/>
  <path d="M30 13.608A12 12 0 0 1 36 24c-4 2.918-8 1.136-12 0" fill="url(#c)"/>
  <path d="M12 24c0-4.287 2.287-8.249 6-10.392L24 24c-3.951 1.321-7.873 3.434-12 0z" fill="url(#d)"/>
  <path d="M18 34.392A12 12 0 0 1 12 24h12c.53 5.272-2.769 7.808-6 10.392z" fill="url(#e)"/>
  <path d="M30 34.392a11.998 11.998 0 0 1-12 0L24 24c3.238 3.228 6.526 6.447 6 10.392z" fill="url(#f)"/>
  <path d="M36 24a12 12 0 0 1-6 10.392L24 24" fill="url(#g)"/>
</svg>
